symbols/web/event_available/materialsymbolssharp/event_available_wght700grad200fill1_24px.svg

<svg xmlns="http://www.w3.org/2000/svg" height="24" width="24"><path d="m10.95 18.825-4.025-4L8.8 12.95l2.15 2.175 4.275-4.275 1.85 1.85Zm-9.1 4.325V2.825h3.775V.85H8.45v1.975h7.1V.85h2.825v1.975h3.775V23.15Zm3.4-3.4h13.5V9.8H5.25Z"/></svg>

<svg xmlns="http://www.w3.org/2000/svg" height="24" width="24"><path d="M10.95 18.825 6.925 14.825 8.8 12.95 10.95 15.125 15.225 10.85 17.075 12.7ZM1.85 23.15V2.825H5.625V0.85H8.45V2.825H15.55V0.85H18.375V2.825H22.15V23.15ZM5.25 19.75H18.75V9.8H5.25Z"/></svg>
